X: 30246
T: Old John's
R: jig
M: 6/8
K: Adorian
|:cAA cAA|GEF GAB|cAA cAA|Add ded|
cAA cAA|GEF GAB|cde gf/e/d|cAG A3:|
|:efg eaa|ged cAA|efg eaa|bag a3|
efg eaa|ged cAA|cde gf/e/d|cAG A3:|

